assets/icons/success-badge.svg

<svg width="104" height="107" viewBox="0 0 104 107" fill="none" xmlns="http://www.w3.org/2000/svg">
<path fill-rule="evenodd" clip-rule="evenodd" d="M27.8519 10.0952C32.013 9.75433 35.9632 8.07496 39.14 5.29627C42.728 2.16063 47.287 0.438507 52 0.438507C56.713 0.438507 61.272 2.16063 64.86 5.29627C68.0367 8.07496 71.987 9.75433 76.1481 10.0952C80.8472 10.4806 85.259 12.5708 88.5924 15.9912C91.9257 19.4115 93.9628 23.9383 94.3384 28.7601C94.6683 33.028 96.3049 37.0836 99.0153 40.3426C102.071 44.0242 103.75 48.7021 103.75 53.5381C103.75 58.374 102.071 63.052 99.0153 66.7336C96.3073 69.9932 94.6706 74.0464 94.3384 78.3161C93.9628 83.1379 91.9257 87.6647 88.5924 91.085C85.259 94.5054 80.8472 96.5956 76.1481 96.9809C71.987 97.3218 68.0367 99.0012 64.86 101.78C61.272 104.916 56.713 106.638 52 106.638C47.287 106.638 42.728 104.916 39.14 101.78C35.9632 99.0012 32.013 97.3218 27.8519 96.9809C23.1528 96.5956 18.741 94.5054 15.4076 91.085C12.0742 87.6647 10.0372 83.1379 9.66161 78.3161C9.32938 74.0464 7.69271 69.9932 4.98466 66.7336C1.92874 63.052 0.250397 58.374 0.250397 53.5381C0.250397 48.7021 1.92874 44.0242 4.98466 40.3426C7.69271 37.083 9.32938 33.0297 9.66161 28.7601C10.0372 23.9383 12.0742 19.4115 15.4076 15.9912C18.741 12.5708 23.1528 10.4806 27.8519 10.0952V10.0952ZM75.9799 44.9557C77.1582 43.7039 77.8102 42.0272 77.7955 40.2869C77.7808 38.5465 77.1005 36.8817 75.9011 35.6511C74.7017 34.4204 73.0793 33.7223 71.3831 33.7072C69.687 33.6921 68.053 34.3611 66.833 35.5702L45.5312 57.4277L37.167 48.8453C35.947 47.6362 34.3129 46.9672 32.6168 46.9823C30.9207 46.9975 29.2983 47.6955 28.0989 48.9262C26.8995 50.1568 26.2192 51.8216 26.2045 53.562C26.1897 55.3023 26.8418 56.979 28.0201 58.2308L40.9577 71.506C42.1708 72.7503 43.8159 73.4494 45.5312 73.4494C47.2465 73.4494 48.8915 72.7503 50.1046 71.506L75.9799 44.9557V44.9557Z" fill="#FFC700"/>
</svg>

<svg width="104" height="107" fill="none" xmlns="http://www.w3.org/2000/svg"><path fill-rule="evenodd" clip-rule="evenodd" d="M27.852 10.095A19.571 19.571 0 0039.14 5.296C42.728 2.161 47.287.44 52 .44c4.713 0 9.272 1.722 12.86 4.857a19.571 19.571 0 0011.288 4.8c4.7.385 9.111 2.475 12.444 5.895 3.334 3.42 5.37 7.947 5.746 12.77a20.603 20.603 0 004.677 11.582c3.056 3.681 4.735 8.36 4.735 13.195 0 4.836-1.679 9.514-4.735 13.196a20.633 20.633 0 00-4.677 11.582c-.375 4.822-2.412 9.349-5.746 12.769-3.333 3.42-7.745 5.51-12.444 5.896a19.57 19.57 0 00-11.288 4.799c-3.588 3.136-8.147 4.858-12.86 4.858-4.713 0-9.272-1.722-12.86-4.858a19.571 19.571 0 00-11.288-4.8c-4.7-.384-9.111-2.475-12.444-5.895-3.334-3.42-5.37-7.947-5.746-12.769a20.633 20.633 0 00-4.677-11.582C1.929 63.052.25 58.374.25 53.538s1.679-9.514 4.735-13.195A20.633 20.633 0 009.662 28.76c.375-4.822 2.412-9.349 5.746-12.769 3.333-3.42 7.745-5.51 12.444-5.896zm48.128 34.86a6.731 6.731 0 001.816-4.668A6.725 6.725 0 0075.9 35.65a6.388 6.388 0 00-4.518-1.944 6.382 6.382 0 00-4.55 1.863L45.531 57.428l-8.364-8.583a6.382 6.382 0 00-4.55-1.863 6.388 6.388 0 00-4.518 1.944 6.725 6.725 0 00-1.895 4.636 6.73 6.73 0 001.816 4.669l12.938 13.275a6.387 6.387 0 004.573 1.943 6.39 6.39 0 004.574-1.943l25.875-26.55z" fill="#FFC700"/></svg>
